X:292
T: ES WOLLT EIN JAEGER JAGEN
N: E1436
O: Europa, Mitteleuropa, Deutschland, Rheingau, Lorchgau; Hessen,
R: Staende -, Jaeger - Lied
M: 4/4
L: 1/8
K: Eb
B,2 | E2G2GFED | E2B2G2
B2 | ccBBAAGB | F4z2
BB | B2B2B2B2 | G2B2E2
EE | ccccc2ec | B2e2G2
GG | FFccB2AB | G4z2

